svgs/sharp-regular/dial.svg

<svg xmlns="http://www.w3.org/2000/svg" viewBox="0 0 576 512"><!--! Font Awesome Pro 6.6.0 by @fontawesome - https://fontawesome.com License - https://fontawesome.com/license (Commercial License) Copyright 2024 Fonticons, Inc. --><path d="M320 0L256 0l0 64 64 0 0-64zM128 64L64 64l0 64 64 0 0-64zm384 0l-64 0 0 64 64 0 0-64zm0 192l0 64 64 0 0-64-64 0zm0 192l-64 0 0 64 64 0 0-64zM64 448l0 64 64 0 0-64-64 0zM0 256l0 64 64 0 0-64L0 256zm208.8-47.2c37.9-37.9 96.2-43 139.6-15.1L271 271l-17 17L288 321.9l17-17 77.4-77.4c27.8 43.4 22.8 101.7-15.1 139.6c-43.7 43.7-114.7 43.7-158.4 0s-43.7-114.7 0-158.4zm192.3-33.9A160 160 0 1 0 174.9 401.1 160 160 0 1 0 401.1 174.9z"/></svg>

<svg xmlns="http://www.w3.org/2000/svg" viewBox="0 0 576 512"><!--! Font Awesome Pro 6.4.0 by @fontawesome - https://fontawesome.com License - https://fontawesome.com/license (Commercial License) Copyright 2023 Fonticons, Inc. --><path d="M320 0H256V64h64V0zM128 64H64v64h64V64zm384 0H448v64h64V64zm0 192v64h64V256H512zm0 192H448v64h64V448zM64 448v64h64V448H64zM0 256v64H64V256H0zm208.8-47.2c37.9-37.9 96.2-43 139.6-15.1L271 271l-17 17L288 321.9l17-17 77.4-77.4c27.8 43.4 22.8 101.7-15.1 139.6c-43.7 43.7-114.7 43.7-158.4 0s-43.7-114.7 0-158.4zm192.3-33.9A160 160 0 1 0 174.9 401.1 160 160 0 1 0 401.1 174.9z"/></svg>
